X: 11848
T: Elusive Otters
R: jig
M: 6/8
K: Amajor
|:cBA A2e|a2e fee|cec =G2A|=gfe f2a|
cBA ABA|ABc d2f|e2a afe|fec c2B:|
efa a2e|fef a2e|cef a2a|fec B2e|
efa afe|fef e2a|a2e fee|fec B2e|
efa afe|fef afe|cef aAa|fec Bcd|
cBA ABA|ABc d2f|e2a afe|fec c2B||

